X:65
T:The Fishes (a)
M:3/4
L:1/4
K:Bb
F/F/|\
F B B|B d B|c B G|F2  F|
F c c|c d e|d c B|(AG)F|
d>c B|F D F|G E G|(FD)F|
d>c B|F D G|F B A|B2  ||
